X:98
T:Paul's Wharf
M:6/8
L:1/8
K:DMix
f d2 dBc | d>AF E2 e | fd^c/d/ eBc | d>FE D3 :|
|: FAF G B2 | BdB ^c e2 | fed eBc | d>FE D3 :|
%
%
